icons/glyphs/glyph-spade.svg

<?xml version="1.0" encoding="UTF-8" standalone="no"?><svg height="16" viewBox="0 0 4.2333332 4.2333332" width="16" xmlns="http://www.w3.org/2000/svg"><sodipodi:namedview/><metadata><rdf:RDF><cc:Work><dc:format>image/svg+xml</dc:format><dc:type/><dc:title/></cc:Work></rdf:RDF></metadata><path d="m2.1166665 0c-1.1808501 1.4527428-1.61632166 1.4449777-1.61831082 2.4465718-.0007289.3726504.37677994.7902443.84171532.7900499.1715726-.0002355.332925-.0492229.4676795-.1356217-.112731.5906126-.3007043 1.0009353-.6049157 1.1323332h.8896135.8896137c-.3116545-.134613-.5019205-.5604775-.6135267-1.1748493.1451222.1115278.3277903.1778673.5247267.1781378.4649353.0001944.8424521-.4173995.8417155-.7900499-.0019845-1.0015941-.4374604-.993829-1.618311-2.4465718z" fill="#d0d0d0" stroke-linecap="square" stroke-width=".362918"/></svg>

<?xml version="1.0" encoding="UTF-8" standalone="no"?>
<!-- Created with Inkscape (http://www.inkscape.org/) -->

<svg
   xmlns:dc="http://purl.org/dc/elements/1.1/"
   xmlns:cc="http://creativecommons.org/ns#"
   xmlns:rdf="http://www.w3.org/1999/02/22-rdf-syntax-ns#"
   xmlns:svg="http://www.w3.org/2000/svg"
   xmlns="http://www.w3.org/2000/svg"
   xmlns:sodipodi="http://sodipodi.sourceforge.net/DTD/sodipodi-0.dtd"
   xmlns:inkscape="http://www.inkscape.org/namespaces/inkscape"
   width="16"
   height="16"
   viewBox="0 0 4.2333332 4.2333332"
   version="1.1"
   id="svg8"
   inkscape:version="0.92+devel (f96dc7e339, 2017-07-28, custom)"
   sodipodi:docname="glyph-spaid.svg">
  <defs
     id="defs2">
    <style
       id="current-color-scheme">      .ColorScheme-Text {
        color:#d0d0d0;
        stop-color:#d0d0d0;
      }
      .ColorScheme-Background {
        color:#212121;
        stop-color:#212121;
      }
      .ColorScheme-Highlight {
        color:#0039a9;
        stop-color:#0039a9;
      }
      .ColorScheme-ViewText {
        color:#d0d0d0;
        stop-color:#d0d0d0;
      }
      .ColorScheme-ViewBackground {
        color:#19191b;
        stop-color:#19191b;
      }
      .ColorScheme-ViewHover {
        color:#005cc7;
        stop-color:#005cc7;
      }
      .ColorScheme-ViewFocus{
        color:#002466;
        stop-color:#002466;
      }
      .ColorScheme-ButtonText {
        color:#d0d0d0;
        stop-color:#d0d0d0;
      }
      .ColorScheme-ButtonBackground {
        color:#232323;
        stop-color:#232323;                             
      }                                                 
      .ColorScheme-ButtonHover {                        
        color:#005cc7;                                  
        stop-color:#005cc7;                             
      }                                                 
      .ColorScheme-ButtonFocus{                         
        color:#0039a9;                                  
        stop-color:#0039a9;                             
      }</style>
  </defs>
  <sodipodi:namedview
     id="base"
     pagecolor="#002466"
     bordercolor="#ffffff"
     borderopacity="0.38039216"
     inkscape:pageopacity="1"
     inkscape:pageshadow="2"
     inkscape:zoom="18.208"
     inkscape:cx="10.094581"
     inkscape:cy="7.9162778"
     inkscape:document-units="px"
     inkscape:current-layer="svg8"
     inkscape:document-rotation="0"
     showgrid="false"
     inkscape:showpageshadow="false"
     borderlayer="true"
     inkscape:window-width="1920"
     inkscape:window-height="1051"
     inkscape:window-x="0"
     inkscape:window-y="0"
     inkscape:window-maximized="1"
     units="px"
     inkscape:object-paths="true" />
  <metadata
     id="metadata5">
    <rdf:RDF>
      <cc:Work
         rdf:about="">
        <dc:format>image/svg+xml</dc:format>
        <dc:type
           rdf:resource="http://purl.org/dc/dcmitype/StillImage" />
        <dc:title></dc:title>
      </cc:Work>
    </rdf:RDF>
  </metadata>
  <path
     style="vector-effect:none;fill:#d0d0d0;fill-opacity:1;stroke-width:0.3629182;stroke-linecap:square"
     d="M 2.1166665,0 C 0.9358164,1.4527428 0.50034484,1.4449777 0.49835568,2.4465718 0.49762678,2.8192222 0.87513562,3.2368161 1.340071,3.2366217 1.5116436,3.2363862 1.672996,3.1873988 1.8077505,3.101 1.6950195,3.6916126 1.5070462,4.1019353 1.2028348,4.2333332 H 2.0924483 2.982062 C 2.6704075,4.0987202 2.4801415,3.6728557 2.3685353,3.0584839 2.5136575,3.1700117 2.6963256,3.2363512 2.893262,3.2366217 3.3581973,3.2368161 3.7357141,2.8192222 3.7349775,2.4465718 3.732993,1.4449777 3.2975171,1.4527428 2.1166665,0 Z"
     id="circle4266"
     inkscape:connector-curvature="0"
     inkscape:label="#" />
</svg>
